resources/svg/stamp-o.svg

<svg xmlns="http://www.w3.org/2000/svg" viewBox="0 0 15 15" fill="none"><path d="M0 14.5H15M6.5 6.5V9.5M8.5 6.5V9.5M7.5 6.5C5.84315 6.5 4.5 5.15685 4.5 3.5C4.5 1.84315 5.84315 0.5 7.5 0.5C9.15685 0.5 10.5 1.84315 10.5 3.5C10.5 5.15685 9.15685 6.5 7.5 6.5ZM0.5 12.5V11.5C0.5 10.3954 1.39543 9.5 2.5 9.5H12.5C13.6046 9.5 14.5 10.3954 14.5 11.5V12.5H0.5Z" stroke="black"/></svg>

<svg xmlns="http://www.w3.org/2000/svg" viewBox="0 0 15 15" fill="none"><path d="M0 14.5h15m-8.5-8v3m2-3v3m-1-3a3 3 0 110-6 3 3 0 010 6zm-7 6v-1a2 2 0 012-2h10a2 2 0 012 2v1H.5z" stroke="currentColor"/></svg>
